!!!ONB: MCCC : IFS0582_03 : Extracted Monophonic Melody
!!!COM: Schubert, Franz
!!!OPR: Piano Sonata in B major
!!!OMV: 3
!!!SCT: D.575 (published as Op.posth.147)
!!!ODT: 1817///
**kern
*staff1
*clefG2
*k[f#]
*G:
*M3/4
8ddd
8bb
=1
4.ddd
8bb
8ccc
8ddd
=2
4dd
4dd
8gg
8dd
=3
4.gg
8b
8cc
8dd
=4
4g
4g
8b
8g
=5
2b
8a
8f#
=6
4dd
4dd
8d
8e
=7
4f#
4f#
8dd
8dd
=8
4dd
4dd
8ee
8cc
=9
2ee
8dd
8b
=10
4gg
4gg
8eee
8ccc
=11
4.eee
8ccc
8ddd
8eee
=12
4aa
4aa
4r
=13
4.ddd
8bb
8ccc
8ddd
=14
4gg
4gg
4r
=15
4.ff#
8dd
8ee
8ff#
=16
4.gg
8ee
8ff#
8gg
=17
4aa
4aa
4r
=18
4.aa
8bb-
8bb
8ccc#
=19
4ddd
4ddd
4r
=20
2.r
=21
4.a
8g
8f#
8e
=22
4d#
4d#
4r
=23
4.g
8f#
8e
8d
=24
4c#
4c#
4r
=25
4d
4e
4f#
=26
4f#
8a
8f#
4a
=27
4d
4e
4f#
=28
*M2/4
4d
4r
=29
*M1/4
8ddd
8bb
=30
*M3/4
4.ddd
8bb
8ccc
8ddd
=31
4dd
4dd
8gg
8dd
=32
4.gg
8b
8cc
8dd
=33
4g
4g
8b
8g
=34
2b
8a
8f#
=35
4dd
4dd
8d
8e
=36
4f#
4f#
8dd
8dd
=37
4dd
4dd
8ee
8cc
=38
2ee
8dd
8b
=39
4gg
4gg
8eee
8ccc
=40
4.eee
8ccc
8ddd
8eee
=41
4aa
4aa
4r
=42
4.ddd
8bb
8ccc
8ddd
=43
4gg
4gg
4r
=44
4.ff#
8dd
8ee
8ff#
=45
4.gg
8ee
8ff#
8gg
=46
4aa
4aa
4r
=47
4.aa
8bb-
8bb
8ccc#
=48
4ddd
4ddd
4r
=49
2.r
=50
4.a
8g
8f#
8e
=51
4d#
4d#
4r
=52
4.g
8f#
8e
8d
=53
4c#
4c#
4r
=54
4d
4e
4f#
=55
4f#
8a
8f#
4a
=56
4d
4e
4f#
=57
*M2/4
4d
4r
=58
*M1/4
4r
=59
*M3/4
4b-
4cc
4dd
=60
4dd
8ff
8dd
4ff
=61
4b-
4cc
4dd
=62
4b-
4r
4r
=63
4ff
4ff
4r
=64
4bb-
4bb-
4r
=65
4dd
4dd#
4ff
=66
4b-
4r
4r
=67
8gg
8aa
8aa
8bb-
4bb-
=68
4dd#
4r
4r
=69
4dd#
4ff
4gg
=70
4cc
4r
4r
=71
4dd
4dd#
4ff
=72
2.r
=73
8ddd
8ddd#
8ddd#
8fff
4fff
=74
2ddd#
4ddd
=75
4cc
4dd
4dd#
=76
8cc
8dd
8dd
8dd#
4dd#
=77
4b-
4cc
4cc#
=78
8a#
8b
8b
8cc#
4cc#
=79
4b
4cc#
4dd
=80
8b
8cc#
8cc#
8dd
4dd
=81
4f#
4g
4a
=82
8f#
8g
8g
8a
4a
=83
2.r
=84
4r
4r
8ddd
8bb
=85
4.ddd
8bb
8ccc
8ddd
=86
4dd
4dd
8gg
8dd
=87
4.gg
8b
8cc
8dd
=88
4g
4g
8b
8g
=89
2b
8a
8f#
=90
4dd
4dd
8d
8e
=91
4f#
4f#
8dd
8dd
=92
4dd
4dd
8ee
8cc
=93
2ee
8dd
8b
=94
4gg
4gg
8eee
8ccc
=95
4.eee
8ccc
8ddd
8eee
=96
4aa
4aa
4r
=97
4.fff#
8ddd
8eee
8fff#
=98
4bb
4bb
4r
=99
4.ggg
8eee
8fff#
8ggg
=100
4ccc
4ccc
4r
=101
4.bb
8gg
8aa
8bb
=102
4.ccc
8aa
8bb
8ccc
=103
4ddd
4ddd
4r
=104
4.ddd
8ddd#
8eee
8fff#
=105
4ggg
4ggg
4r
=106
2.r
=107
4.dd
8cc
8b
8a
=108
4g#
4g#
4r
=109
4.cc
8b
8a
8g
=110
4f#
4f#
4r
=111
4g
4a
4b
=112
4b
8dd
8b
4dd
=113
4g
4a
4b
=114
4g
4r
4r
=115
4b-
4cc
4dd
=116
4dd
8ff
8dd
4ff
=117
4b-
4cc
4dd
=118
4b-
4r
4r
=119
4ff
4ff
4r
=120
4bb-
4bb-
4r
=121
4dd
4dd#
4ff
=122
4b-
4r
4r
=123
8gg
8aa
8aa
8bb-
4bb-
=124
4dd#
4r
4r
=125
4dd#
4ff
4gg
=126
4cc
4r
4r
=127
4dd
4dd#
4ff
=128
2.r
=129
8ddd
8ddd#
8ddd#
8fff
4fff
=130
2ddd#
4ddd
=131
4cc
4dd
4dd#
=132
8cc
8dd
8dd
8dd#
4dd#
=133
4b-
4cc
4cc#
=134
8a#
8b
8b
8cc#
4cc#
=135
4b
4cc#
4dd
=136
8b
8cc#
8cc#
8dd
4dd
=137
4f#
4g
4a
=138
8f#
8g
8g
8a
4a
=139
2.r
=140
4r
4r
8ddd
8bb
=141
4.ddd
8bb
8ccc
8ddd
=142
4dd
4dd
8gg
8dd
=143
4.gg
8b
8cc
8dd
=144
4g
4g
8b
8g
=145
2b
8a
8f#
=146
4dd
4dd
8d
8e
=147
4f#
4f#
8dd
8dd
=148
4dd
4dd
8ee
8cc
=149
2ee
8dd
8b
=150
4gg
4gg
8eee
8ccc
=151
4.eee
8ccc
8ddd
8eee
=152
4aa
4aa
4r
=153
4.fff#
8ddd
8eee
8fff#
=154
4bb
4bb
4r
=155
4.ggg
8eee
8fff#
8ggg
=156
4ccc
4ccc
4r
=157
4.bb
8gg
8aa
8bb
=158
4.ccc
8aa
8bb
8ccc
=159
4ddd
4ddd
4r
=160
4.ddd
8ddd#
8eee
8fff#
=161
4ggg
4ggg
4r
=162
2.r
=163
4.dd
8cc
8b
8a
=164
4g#
4g#
4r
=165
4.cc
8b
8a
8g
=166
4f#
4f#
4r
=167
4g
4a
4b
=168
4b
8dd
8b
4dd
=169
4g
4a
4b
=170
4g
4r
4r
=171
2a
4b
=172
2a
4g
=173
2f#
4e
=174
8d
8c#
8d
8e
8f#
8g#
=175
8a
8g#
8a
8cc#
8b
8cc#
=176
8a
8b
8a
8g#
8f#
8g#
=177
8a
8g#
8a
8cc#
8b
8ee
=178
8a
8g#
8a
8b
8a
8g
=179
2a
4b
=180
2a
4g
=181
2f#
4e
=182
8d
8c#
8d
8e
8f#
8g#
=183
8a
8g#
8a
8cc#
8b
8cc#
=184
8a
8b
8a
8g#
8f#
8g#
=185
8a
8g#
8a
8cc#
8b
8ee
=186
8a
8g#
8a
8b
8a
8g
=187
8f#
8e#
8f#
8g
8f#
8g
=188
8f#
8e#
8f#
8a
8f#
8a
=189
8a
8b
8a
8b
8a
8g
=190
8f#
8g
8f#
8e
8d
8e
=191
8f#
8e#
8f#
8g
8f#
8g
=192
8f#
8e#
8f#
8a
8f#
8a
=193
8a
8b
8a
8b
8a
8g
=194
8f#
8e#
8f#
8a
8dd
8ff#
=195
8ff#
8ee#
8ff#
8dd
8gg
8ee
=196
8ff#
8ee#
8ff#
8dd
8b
8cc#
=197
8dd
8cc#
8dd
8a
8g
8a
=198
8f#
8g
8f#
8e
8d
8e
=199
8f#
8e#
8f#
8g
8f#
8g
=200
8f#
8e#
8f#
8a
8f#
8a
=201
8a
8b
8a
8b
8a
8g
=202
8f#
8g
8f#
8e
8d
8e
=203
8f#
8e#
8f#
8g
8f#
8g
=204
8f#
8e#
8f#
8a
8f#
8a
=205
8a
8b
8a
8b
8a
8g
=206
8f#
8e#
8f#
8a
8dd
8ff#
=207
8ff#
8ee#
8ff#
8dd
8gg
8ee
=208
8ff#
8ee#
8ff#
8dd
8b
8cc#
=209
8dd
8cc#
8dd
8a
8g
8a
=210
8dd
8cc#
8dd
8ee
8dd
8ee
=211
8dd
8ee
8dd
8ee
8dd
8ee
=212
8ff#
8gg
8aa
8bb
8ccc
8ccc#
=213
8ddd
8eee
8ddd
8eee
8ddd
8eee
=214
*M2/4
8ddd
8eee
8ddd
8eee
=215
*M1/4
8ddd
8bb
=216
*M3/4
4.ddd
8bb
8ccc
8ddd
=217
4dd
4dd
8gg
8dd
=218
4.gg
8b
8cc
8dd
=219
4g
4g
8b
8g
=220
2b
8a
8f#
=221
4dd
4dd
8d
8e
=222
4f#
4f#
8dd
8dd
=223
4dd
4dd
8ee
8cc
=224
2ee
8dd
8b
=225
4gg
4gg
8eee
8ccc
=226
4.eee
8ccc
8ddd
8eee
=227
4aa
4aa
4r
=228
4.ddd
8bb
8ccc
8ddd
=229
4gg
4gg
4r
=230
4.ff#
8dd
8ee
8ff#
=231
4.gg
8ee
8ff#
8gg
=232
4aa
4aa
4r
=233
4.aa
8bb-
8bb
8ccc#
=234
4ddd
4ddd
4r
=235
2.r
=236
4.a
8g
8f#
8e
=237
4d#
4d#
4r
=238
4.g
8f#
8e
8d
=239
4c#
4c#
4r
=240
4d
4e
4f#
=241
4f#
8a
8f#
4a
=242
4d
4e
4f#
=243
*M2/4
4d
4r
=244
*M1/4
4r
=245
*M3/4
4b-
4cc
4dd
=246
4dd
8ff
8dd
4ff
=247
4b-
4cc
4dd
=248
4b-
4r
4r
=249
4ff
4ff
4r
=250
4bb-
4bb-
4r
=251
4dd
4dd#
4ff
=252
4b-
4r
4r
=253
8gg
8aa
8aa
8bb-
4bb-
=254
4dd#
4r
4r
=255
4dd#
4ff
4gg
=256
4cc
4r
4r
=257
4dd
4dd#
4ff
=258
2.r
=259
8ddd
8ddd#
8ddd#
8fff
4fff
=260
2ddd#
4ddd
=261
4cc
4dd
4dd#
=262
8cc
8dd
8dd
8dd#
4dd#
=263
4b-
4cc
4cc#
=264
8a#
8b
8b
8cc#
4cc#
=265
4b
4cc#
4dd
=266
8b
8cc#
8cc#
8dd
4dd
=267
4f#
4g
4a
=268
8f#
8g
8g
8a
4a
=269
2.r
=270
4r
4r
8ddd
8bb
=271
4.ddd
8bb
8ccc
8ddd
=272
4dd
4dd
8gg
8dd
=273
4.gg
8b
8cc
8dd
=274
4g
4g
8b
8g
=275
2b
8a
8f#
=276
4dd
4dd
8d
8e
=277
4f#
4f#
8dd
8dd
=278
4dd
4dd
8ee
8cc
=279
2ee
8dd
8b
=280
4gg
4gg
8eee
8ccc
=281
4.eee
8ccc
8ddd
8eee
=282
4aa
4aa
4r
=283
4.fff#
8ddd
8eee
8fff#
=284
4bb
4bb
4r
=285
4.ggg
8eee
8fff#
8ggg
=286
4ccc
4ccc
4r
=287
4.bb
8gg
8aa
8bb
=288
4.ccc
8aa
8bb
8ccc
=289
4ddd
4ddd
4r
=290
4.ddd
8ddd#
8eee
8fff#
=291
4ggg
4ggg
4r
=292
2.r
=293
4.dd
8cc
8b
8a
=294
4g#
4g#
4r
=295
4.cc
8b
8a
8g
=296
4f#
4f#
4r
=297
4g
4a
4b
=298
4b
8dd
8b
4dd
=299
4g
4a
4b
=300
4g
4r
4r
==
*-
